assets/img/braze_icons/share-07.svg

<svg fill="none" height="24" viewBox="0 0 24 24" width="24" xmlns="http://www.w3.org/2000/svg"><path d="m14 5c0-2.20914 1.7909-4 4-4s4 1.79086 4 4-1.7909 4-4 4c-1.1115 0-2.117-.45332-2.8419-1.18515l-5.30776 3.09745c.0975.3458.14966.7107.14966 1.0877 0 .3768-.0521.7415-.1495 1.0871l5.3108 3.0948c.7247-.7299 1.7289-1.1819 2.8387-1.1819 2.2091 0 4 1.7909 4 4s-1.7909 4-4 4-4-1.7909-4-4c0-.3786.0526-.745.1509-1.0921l-5.30855-3.0935c-.72493.7321-1.73068 1.1856-2.84235 1.1856-2.20914 0-4-1.7909-4-4 0-2.20914 1.79086-4 4-4 1.11146 0 2.11703.45332 2.84193 1.18514l5.30777-3.09747c-.0975-.34582-.1497-.71066-.1497-1.08767z" fill="#801ed7"/></svg>

<svg width="24" height="24" viewBox="0 0 24 24" fill="none" xmlns="http://www.w3.org/2000/svg">
<path d="M14 5C14 2.79086 15.7909 1 18 1C20.2091 1 22 2.79086 22 5C22 7.20914 20.2091 9 18 9C16.8885 9 15.883 8.54668 15.1581 7.81485L9.85034 10.9123C9.94784 11.2581 10 11.623 10 12C10 12.3768 9.9479 12.7415 9.8505 13.0871L15.1613 16.1819C15.886 15.452 16.8902 15 18 15C20.2091 15 22 16.7909 22 19C22 21.2091 20.2091 23 18 23C15.7909 23 14 21.2091 14 19C14 18.6214 14.0526 18.255 14.1509 17.9079L8.84235 14.8144C8.11742 15.5465 7.11167 16 6 16C3.79086 16 2 14.2091 2 12C2 9.79086 3.79086 8 6 8C7.11146 8 8.11703 8.45332 8.84193 9.18514L14.1497 6.08767C14.0522 5.74185 14 5.37701 14 5Z" fill="#801ED7"/>
</svg>
